X:1
T:Lowden
T:Lowden
T:Carl Harold Lowden, 1915
T:Public Domain Courtesy of the Cyber Hymnal™
C:Carl Harold Lowden, 1915
Z:Public Domain
Z:Courtesy of the Cyber Hymnal™
%%score ( 1 2 ) ( 3 4 )
L:1/8
Q:1/4=128
M:4/4
K:F
V:1 treble 
V:2 treble 
V:3 bass 
V:4 bass 
V:1
 [FA]2 [FB]4 [FA]2 | [Ec]2 [EG]4 [_EA]2 | [DB]2 [DF]4 [_DG]2 | [CA]8 | [EA]2 [EG]4 [EA]2 | %5
 [CG]2 [CF]4 [CE]2 | [=B,D]2 [FA]4 [FG]2 | [EG]8 | [FA]2 [FB]4 [FA]2 | [Ec]2 [EG]4 [_EA]2 | %10
 [DB]2 [DF]4 [EG]2 | [EA]8 | G2 [^Ge]4 [Gd]2 | [Ac]2 F4 G2 | [FA]2 [EA]4 [EG]2 | F6 [CAc]2 | %16
 [CAc]2 [Aca]2 [Aca]2 [GBg]2 | [GBg]2 [FAf]4 [DBd]2 | [DBd]2 [Bdb]2 [Bdb]2 [Aca]2 | [GBg]6 [Fdf]2 | %20
 [Ece]2 [cec']2 [cec']2 [Bdb]2 x4 | [Bdb]2 [Aca]4 [Aca]2 | [ABa]2 [GBg]2 [DBd]2 [ABa]2 | %23
 [GBg]6 [CBc]2 | [CAc]2 [Aca]2 [Aca]2 [GBg]2 | [GBg]2 [FAf]4 [FAf]2 | %26
 [FAf]2 [dfd']2 [dfd']2 [c_ec']2 | [Bdb]6 [DBd]2 | [Fdf]2 [Ede]2 [Fdf]2 [G_dg]2 | %29
 [Aca]2 [Aca]2 [Bdb]6 [Aca]2 | [A=Ba]2 [GBg]2 [D_Bd]2 [EBe]2 | [FAf]6 |] %32
V:2
 x8 | x8 | x8 | x8 | x8 | x8 | x8 | x8 | x8 | x8 | x8 | x8 | x8 | x6 F2 | x8 | F6 x2 | x8 | x8 | %18
 x8 | x8 | x12 | x8 | x8 | x8 | x8 | x8 | x8 | x8 | x8 | x12 | x8 | x6 |] %32
V:3
 [F,C]2 [F,D]4 [C,C]2 | [C,C]2 [C,C]4 [F,C]2 | [B,,B,]2 [B,,B,]4 [B,,F,]2 | F,8 | %4
 [C,C]2 [C,B,]4 [C,C]2 | [F,B,]2 [F,A,]4 [F,A,]2 | G,2 [G,=B,]4 [G,B,]2 | [C,C]8 | %8
 [F,C]2 [F,D]4 [F,C]2 | [C,C]2 [C,C]4 [F,C]2 | [B,,B,]2 B,4 [B,D]2 | [A,^C]8 | %12
 [B,D]2 [=B,F]4 [B,F]2 | [CF]2 [A,C]4 [B,D]2 | C2 [C,C]4 [C,B,]2 | [F,A,]6 z2 | %16
 (F,,2 [A,CF]2 [CE]4) | (F,,2 [F,A,C]2 [A,CF]2) z2 | (G,,2 [B,DG]2 [D^F]4) | %19
 (G,,2 [G,B,D]2 [B,DG]2) z2 | C,,2 [G,B,C]2 [CE]8 | F,,2 [F,A,C]2 [A,CF]4 | %22
 G,,2 [F,G,=B,]2 [G,B,]4 | (C,,2 [E,B,C]2 [G,B,CE]2) z2 | (F,,2 [A,CF]2 [CE]4) | %25
 (F,,2 [F,A,C]2 [A,CF]2) z2 | (F,,2 [F,A,_E]2 [EF]4) | (B,,2 [F,B,D]2 [B,DF]2) z2 | %28
 (B,,2 [F,B,D]2 B,,2 [F,B,_D]2 | C,2 [A,CF]2 [D,CD^F]6) z2 | G,,2 ([G,=B,F]2 C,,2 [G,_B,C]2 | %31
 F,,2 [F,A,C]2 [F,A,C]2) |] %32
V:4
 x8 | x8 | x8 | F,8 | x8 | x8 | x8 | x8 | x8 | x8 | x8 | x8 | x8 | x8 | x8 | x8 | x4 B,4 | x8 | %18
 C4 x4 | x8 | x4 B,4 x4 | x8 | x8 | x8 | B,4 x4 | x8 | A,4 x4 | x8 | x8 | x12 | x8 | x6 |] %32

